src/16/places/user-trash.svg

<svg xmlns="http://www.w3.org/2000/svg" width="16" height="16" viewBox="0 0 16 16">
 <defs>
  <style id="current-color-scheme" type="text/css">
   .ColorScheme-Text { color:#727272; } .ColorScheme-Highlight { color:#5294e2; }
  </style>
 </defs>
 <path style="fill:currentColor" class="ColorScheme-Text" d="M 6 0.99414062 C 5 0.99414062 5 1.9941406 5 1.9941406 L 2 1.9941406 C 2 1.9941406 1 1.9956937 1 2.9960938 L 1 3 L 1 4 L 14 3.9960938 L 14 2.9960938 C 14 1.9960938 13 1.9941406 13 1.9941406 L 10 1.9941406 C 10 1.9941406 10 0.99414062 9 0.99414062 L 6 0.99414062 z M 2 5 L 2 14 C 2.00005 14.52358 2.47642 14.99995 3 15 L 12 15 C 12.52358 14.99995 12.99995 14.52358 13 14 L 13 5 L 2 5 z"/>
</svg>

<svg xmlns="http://www.w3.org/2000/svg" width="16" height="16"><defs><style id="current-color-scheme" type="text/css"></style></defs><path d="M6 .994c-1 0-1 1-1 1H2s-1 .002-1 1.002V4l13-.004v-1c0-1-1-1.002-1-1.002h-3s0-1-1-1H6zM2 5v9c0 .524.476 1 1 1h9c.524 0 1-.476 1-1V5H2z" fill="currentColor" color="#727272"/></svg>
